X:1
T:Title
%%score ( 1 2 ) { 3 | 4 }
L:1/8
Q:1/4=97
M:6/8
K:D
V:1 treble nm="Grand Piano, Soprano"
V:2 treble 
V:3 bass nm="Choir Pad, From the Cyber Hymnal™"
V:4 bass 
V:1
 [A,D] [DF]2 [DF] [DF]2 | [DF] [CG]2 [CG] [CG]2 | [DF] [CE]2 [CE] [CE]2 | [CA][CA]C [CG] [DF]2 | %4
w: By~H.~A.~R.~Horton * * *||||
 [FA] [Fd]2 [Fd][Bd][Ac] | [AB] [^Ge]2 [Gd] [Ac]2 | B/A/ [Fd]2 [Fd] [Dd]2 | [GB]Ad [Gc] [Fd]2 | %8
w: ||||
 z A2- A3 | z c2- c2- c/ z/ | z A2- A3 | [Ge] [Fd]2- [Fd]2- [Fd]/ z/ | d d2 B A2 | %13
w: |||||
 [GB] [FA]2 [EA] [DF]2 | [FA] [Gc]2 [GA] [Gc]2 | [EA] [Dd]2 [GA] [Fd]2 | [FA] [Fd]2 [Fd][Bd][Ac] | %17
w: ||||
 [AB] [^Ge]2 [Gd] [Ac]2 | B/A/ [Fd]2 [Fd] [Dd]2 | [GB]Ad [Gc] [Fd]2- | [Fd]6 |] %21
w: ||||
V:2
 x6 | x6 | x6 | x6 | x6 | x6 | .G3 z3 | z F2 z3 | .A3 F F2 | [Dd] E2- E G2 | .A3 G G2 | x6 | x6 | %13
 x6 | x6 | x6 | x6 | x6 | .G3 z3 | z F2 z3 | x6 |] %21
V:3
 F, A,2 A, A,2 | A, A,2 A, A,2 | A, A,2 A, A,2 | A, A,2 A, A,2 | A, A,2[K:treble] D D2 | %5
 ^D E2 E E2 | A, A,2 A, A,2 | D D2 A, A,2 | z3 A, A,2 | A, A,2- A,2- A,/ z/ | z3 C C2 | %11
 A, A,2- A,2- A,/ z/ | D D2 B, A,2 | D D2[K:bass] A, A,2 | A, A,2 A, A,2 | A, A,2 A, A,2 | %16
 A, A,2[K:treble] D D2 | ^D E2 E E2 | A, A,2 A, A,2 | D D2 A, A,2- | A,6 |] %21
V:4
 D, D,2 D, D,2 | D, E,2 E, E,2 | D, A,,2 A,, A,,2 | A,, A,,2 A,, D,2 | D, D,2 D, G,2 | %5
 F, E,2 E, A,2 | z D,2 D, F,2 | G, A,2 A,, D,2 | z3 D, D,2 | .F,3 z3 | z3 A,, A,,2 | %11
 A,, D,2- D,2- D,/ z/ | z6 | G, F,2 E, D,2 | D, E,2 E, A,,2 | G, F,2 E, D,2 | D, D,2 D, G,2 | %17
 F, E,2 E, A,2 | z D,2 D, F,2 | G, A,2 A,, D,2- | D,6 |] %21

